X: 38214
T: Spy Czar, The
R: hornpipe
M: 4/4
K: Aminor
A|EAcA (3ABc d2|(3 EAc (3ecA EAB^G|E/E/A ce agfe|(3gfe dc BA^GF|
EAcA (3ABc d2|(3 EAc (3ecA EAB^G|(3DFA (3dAF EB,^GB,|A,2AE A3:|
B|(3cBA cd eaa^g|(^ga)ag (3aec AB|(3cBA Bc f2e^d|e2E^F ^GABe|
(3cBA cd eaa^g|DFAd fa~a2|baec BE (3dcB|A2 A/A/A A,2AB|
(3cBA cd eaa^g|(^ga)ag (3aec AB|(3cBA Bc f2e^d|e2E^F ^GABe|
(3EAc (3ecA (3EAc (3ecA|(3DFA (3dAF (3DFA (3dAF|EB,^GE BGeB|A,2AE A3||

